gama.ui.shared/icons_svg/dark/experiment/experiment.simulations.duplicate.svg

<svg height="25" viewBox="-274.774 -3215.705 25 25" width="25" xmlns="http://www.w3.org/2000/svg"><g fill="none"><path d="m-254.11414-3215.205h-16.32c-2.12076 0-3.84 1.719-3.84 3.84v16.32c0 2.1207 1.71924 3.84 3.84 3.84h16.32c2.12078 0 3.84-1.7193 3.84-3.84v-16.32c0-2.121-1.71922-3.84-3.84-3.84z" fill="#666"/><path d="m-254.11414-3215.205h-16.32c-2.12076 0-3.84 1.719-3.84 3.84v16.32c0 2.1207 1.71924 3.84 3.84 3.84h16.32c2.12078 0 3.84-1.7193 3.84-3.84v-16.32c0-2.121-1.71922-3.84-3.84-3.84z" stroke="#fff" stroke-linecap="round" stroke-linejoin="round" stroke-width=".25"/><path d="m-274.27414-3215.205h24v24h-24z"/><path d="m-265.21215-3197.2075h-2.57141v2.5715h-.85714v-2.5715h-2.5714v-.8571h2.5714v-2.5714h.85714v2.5714h2.57141z" fill="#f9b841"/><path d="m-265.21215-3197.2075h-2.57141v2.5715h-.85714v-2.5715h-2.5714v-.8571h2.5714v-2.5714h.85714v2.5714h2.57141z" stroke="#cf7839" stroke-linecap="round" stroke-linejoin="round" stroke-width=".25"/><path d="m-261.9629-3205.323c-2.97426-.3585-4.59438-3.745-2.92695-6.2555 2.3855-3.5945 7.8262-1.5371 7.49503 2.8395-.13038 1.7328-1.37095 2.6937-1.68005 4.2602-.72437 3.6681 3.86579 5.4302 5.91802 2.4233 1.39513-2.0448-.06835-4.9171-2.52428-5.0937-.31645-.0221-.87367.1419-.97144-.2692-.11039-.4636.40582-.492.72647-.4909 3.0552.0126 5.04646 3.3138 3.59876 6-2.05748 3.8195-7.92398 2.2488-7.56442-2.2005.18819-2.3266 2.41704-3.5399 1.61592-6.122-.89154-2.8702-4.60699-3.3369-6.08623-.7348-1.1691 2.0564.21342 4.6564 2.55897 4.8971-.16822-.3448-.51726-.6518-.6981-.9798-.22288-.4037.25653-.8474.6487-.4174.42683.4687.77377 1.0955 1.2143 1.5677.10933.1975.05676.4036-.0652.5823-.56667.3269-1.13124.9777-1.68635 1.2807-.31855.1733-.71912-.1116-.5488-.467.11775-.246.96935-.757.97775-.82z" fill="#c0e0ff"/><path d="m-259.3983-3200.4515c0-.6293-.40813-1.1395-.9116-1.1395h-3.0386c-.50347 0-.9116.5102-.9116 1.1395v2.2788c0 .6293.40813 1.1394.9116 1.1394h3.0386c.50347 0 .9116-.5101.9116-1.1394z" fill="#fff"/><path d="m-259.3983-3200.4515c0-.6293-.40813-1.1395-.9116-1.1395h-3.0386c-.50347 0-.9116.5102-.9116 1.1395v2.2788c0 .6293.40813 1.1394.9116 1.1394h3.0386c.50347 0 .9116-.5101.9116-1.1394z" stroke="#528636" stroke-linejoin="round" stroke-width=".5"/><path d="m-257.10362-3198.2375c0-.6293-.40813-1.1395-.91158-1.1395h-3.03862c-.50348 0-.91158.5102-.91158 1.1395v2.2788c0 .6293.4081 1.1394.91158 1.1394h3.03862c.50345 0 .91158-.5101.91158-1.1394z" fill="#fff"/><path d="m-257.10362-3198.2375c0-.6293-.40813-1.1395-.91158-1.1395h-3.03862c-.50348 0-.91158.5102-.91158 1.1395v2.2788c0 .6293.4081 1.1394.91158 1.1394h3.03862c.50345 0 .91158-.5101.91158-1.1394z" stroke="#528636" stroke-linejoin="round" stroke-width=".5"/></g></svg>

<?xml version="1.0" encoding="UTF-8" standalone="no"?>
<!DOCTYPE svg PUBLIC "-//W3C//DTD SVG 1.1//EN" "http://www.w3.org/Graphics/SVG/1.1/DTD/svg11.dtd">
<svg xmlns="http://www.w3.org/2000/svg" xmlns:xl="http://www.w3.org/1999/xlink" version="1.1" xmlns:dc="http://purl.org/dc/elements/1.1/" viewBox="-274.77414 -3215.705 25 25" width="25" height="25">
  <defs/>
  <g id="SOURCES" stroke-opacity="1" fill="none" stroke="none" fill-opacity="1" stroke-dasharray="none">
    <title>SOURCES</title>
    <g id="SOURCES_Dark">
      <title>Dark</title>
      <g id="Graphic_10885">
        <path d="M -254.11414 -3215.205 L -270.43414 -3215.205 C -272.5549 -3215.205 -274.27414 -3213.486 -274.27414 -3211.365 L -274.27414 -3195.045 C -274.27414 -3192.9243 -272.5549 -3191.205 -270.43414 -3191.205 L -254.11414 -3191.205 C -251.99336 -3191.205 -250.27414 -3192.9243 -250.27414 -3195.045 L -250.27414 -3211.365 C -250.27414 -3213.486 -251.99336 -3215.205 -254.11414 -3215.205 Z" fill="#666"/>
        <path d="M -254.11414 -3215.205 L -270.43414 -3215.205 C -272.5549 -3215.205 -274.27414 -3213.486 -274.27414 -3211.365 L -274.27414 -3195.045 C -274.27414 -3192.9243 -272.5549 -3191.205 -270.43414 -3191.205 L -254.11414 -3191.205 C -251.99336 -3191.205 -250.27414 -3192.9243 -250.27414 -3195.045 L -250.27414 -3211.365 C -250.27414 -3213.486 -251.99336 -3215.205 -254.11414 -3215.205 Z" stroke="white" stroke-linecap="round" stroke-linejoin="round" stroke-width=".25"/>
      </g>
      <g id="Graphic_10884">
        <rect x="-274.27414" y="-3215.205" width="24" height="24" stroke="gray" stroke-opacity="0" stroke-linecap="round" stroke-linejoin="round" stroke-width=".25"/>
      </g>
      <g id="Graphic_10882">
        <path d="M -265.21215 -3197.2075 L -267.78356 -3197.2075 L -267.78356 -3194.636 L -268.6407 -3194.636 L -268.6407 -3197.2075 L -271.2121 -3197.2075 L -271.2121 -3198.0646 L -268.6407 -3198.0646 L -268.6407 -3200.636 L -267.78356 -3200.636 L -267.78356 -3198.0646 L -265.21215 -3198.0646 L -265.21215 -3197.2075 Z" fill="#f9b841"/>
        <path d="M -265.21215 -3197.2075 L -267.78356 -3197.2075 L -267.78356 -3194.636 L -268.6407 -3194.636 L -268.6407 -3197.2075 L -271.2121 -3197.2075 L -271.2121 -3198.0646 L -268.6407 -3198.0646 L -268.6407 -3200.636 L -267.78356 -3200.636 L -267.78356 -3198.0646 L -265.21215 -3198.0646 L -265.21215 -3197.2075 Z" stroke="#cf7839" stroke-linecap="round" stroke-linejoin="round" stroke-width=".25"/>
      </g>
      <g id="Graphic_10881">
        <path d="M -261.9629 -3205.323 C -264.93716 -3205.6815 -266.55728 -3209.068 -264.88985 -3211.5785 C -262.50435 -3215.173 -257.06365 -3213.1156 -257.39482 -3208.739 C -257.5252 -3207.0062 -258.76577 -3206.0453 -259.07487 -3204.4788 C -259.79924 -3200.8107 -255.20908 -3199.0486 -253.15685 -3202.0555 C -251.76172 -3204.1003 -253.2252 -3206.9726 -255.68113 -3207.1492 C -255.99758 -3207.1713 -256.5548 -3207.0073 -256.65257 -3207.4184 C -256.76296 -3207.882 -256.24675 -3207.9104 -255.9261 -3207.9093 C -252.8709 -3207.8967 -250.87964 -3204.5955 -252.32734 -3201.9093 C -254.38482 -3198.0898 -260.25132 -3199.6605 -259.89176 -3204.1098 C -259.70357 -3206.4364 -257.47472 -3207.6497 -258.27584 -3210.2318 C -259.16738 -3213.102 -262.88283 -3213.5687 -264.36207 -3210.9666 C -265.53117 -3208.9102 -264.14865 -3206.3102 -261.8031 -3206.0695 C -261.97132 -3206.4143 -262.32036 -3206.7213 -262.5012 -3207.0493 C -262.72408 -3207.453 -262.24467 -3207.8967 -261.8525 -3207.4667 C -261.42567 -3206.998 -261.07873 -3206.3712 -260.6382 -3205.899 C -260.52887 -3205.7015 -260.58144 -3205.4954 -260.7034 -3205.3167 C -261.27007 -3204.9898 -261.83464 -3204.339 -262.38975 -3204.036 C -262.7083 -3203.8627 -263.10887 -3204.1476 -262.93855 -3204.503 C -262.8208 -3204.749 -261.9692 -3205.26 -261.9608 -3205.323 Z" fill="#c0e0ff"/>
      </g>
      <g id="Graphic_10880">
        <path d="M -259.3983 -3200.4515 C -259.3983 -3201.0808 -259.80643 -3201.591 -260.3099 -3201.591 L -263.3485 -3201.591 C -263.85197 -3201.591 -264.2601 -3201.0808 -264.2601 -3200.4515 L -264.2601 -3198.1727 C -264.2601 -3197.5434 -263.85197 -3197.0333 -263.3485 -3197.0333 L -260.3099 -3197.0333 C -259.80643 -3197.0333 -259.3983 -3197.5434 -259.3983 -3198.1727 Z" fill="white"/>
        <path d="M -259.3983 -3200.4515 C -259.3983 -3201.0808 -259.80643 -3201.591 -260.3099 -3201.591 L -263.3485 -3201.591 C -263.85197 -3201.591 -264.2601 -3201.0808 -264.2601 -3200.4515 L -264.2601 -3198.1727 C -264.2601 -3197.5434 -263.85197 -3197.0333 -263.3485 -3197.0333 L -260.3099 -3197.0333 C -259.80643 -3197.0333 -259.3983 -3197.5434 -259.3983 -3198.1727 Z" stroke="#528636" stroke-linecap="butt" stroke-linejoin="round" stroke-width=".5"/>
      </g>
      <g id="Graphic_10879">
        <path d="M -257.10362 -3198.2375 C -257.10362 -3198.8668 -257.51175 -3199.377 -258.0152 -3199.377 L -261.05382 -3199.377 C -261.5573 -3199.377 -261.9654 -3198.8668 -261.9654 -3198.2375 L -261.9654 -3195.9587 C -261.9654 -3195.3294 -261.5573 -3194.8193 -261.05382 -3194.8193 L -258.0152 -3194.8193 C -257.51175 -3194.8193 -257.10362 -3195.3294 -257.10362 -3195.9587 Z" fill="white"/>
        <path d="M -257.10362 -3198.2375 C -257.10362 -3198.8668 -257.51175 -3199.377 -258.0152 -3199.377 L -261.05382 -3199.377 C -261.5573 -3199.377 -261.9654 -3198.8668 -261.9654 -3198.2375 L -261.9654 -3195.9587 C -261.9654 -3195.3294 -261.5573 -3194.8193 -261.05382 -3194.8193 L -258.0152 -3194.8193 C -257.51175 -3194.8193 -257.10362 -3195.3294 -257.10362 -3195.9587 Z" stroke="#528636" stroke-linecap="butt" stroke-linejoin="round" stroke-width=".5"/>
      </g>
    </g>
  </g>
</svg>
